X:45
T:Return to Armagh
R:reel
C:Paul S. Cranford
O:Cape Breton Island
S:http://www.cranfordpub.com
D:currently unrecorded
B:currently unpublished in book form
Z:psc
H:                                                        copyrights Cranford Publications, SOCAN
L:1/8
Q:333
M:C|
K:D
A|D2 FA BdcA|BE E/E/E dEBd|ADFA (3(Bcd) eg|fdcA BddA|
D2 FA BdcA|BE E/E/E dEBc|dA B/c/d AFdA|Bdeg fdd:|
|:f|afba gece|dA (B/c/d) AFFd|eB  B/B/B gBeg|[1afdf geeg|
afba gece|dA (B/c/d) AFFd|eB B/B/B gBec|dfeg fdd:|
[2afdf gecA|FGAd cAdA|efga fddf|eBgB fBeB|AdcA Bdd|]
